favicon.svg

<svg width="48" height="48" viewBox="0 0 48 48" fill="none" xmlns="http://www.w3.org/2000/svg"><rect width="48" height="48" fill="black" /><path d="M16.1277 35.624L21.9309 12.848H26.3613L32.1645 35.624H28.7637L27.3909 29.852H20.9325L19.5597 35.624H16.1277ZM21.5565 27.0752H26.7357L25.1757 20.492C24.9053 19.3272 24.6765 18.3184 24.4893 17.4656C24.3229 16.592 24.2085 15.9992 24.1461 15.6872C24.0837 15.9992 23.9693 16.592 23.8029 17.4656C23.6365 18.3184 23.4077 19.3168 23.1165 20.4608L21.5565 27.0752Z" fill="white"/></svg>

<svg xmlns="http://www.w3.org/2000/svg" width="48" height="48" fill="none"><rect width="48" height="48" fill="#000" rx="12" ry="12"/><path fill="#fff" d="m16.128 35.624 5.803-22.776h4.43l5.803 22.776h-3.4l-1.373-5.772h-6.458l-1.373 5.772zm5.429-8.549h5.179l-1.56-6.583q-.406-1.748-.687-3.026a240 240 0 0 0-.343-1.779 240 240 0 0 0-.343 1.779 55 55 0 0 1-.687 2.995z"/></svg>
